!!!OTL: DURCH FELD UND BUCHENHALLEN
!!!ARE: Europa, Mitteleuropa, Deutschland
!!!SCT: B0510
!!!YEM: Copyright 1995, estate of Helmut Schaffrath.
**kern
*ICvox
*Ivox
*M6/8
*k[f#c#g#]
*A:
{8e
=1
4e
8e
4cc#
8b
=2
4.a
4f#}
{8f#
=3
4e
8g#
4g#
8b
=4
2a
8r}
{8e
=5
4cc#
8cc#
8cc#
8b
8ee
=6
4.ee
4dd}
{8b
=7
4a
8a
8b
8a
8b
=8
2cc#
8r}
{8e
=9
4cc#
8cc#
8cc#
8dd
8ee
=10
4.ff#
8ee
8dd}
{8b
=11
4a
8a
4cc#
8b
=12
2a
8r}
==
!!!AGN: Wander - Lied
!!!ONB: ESAC (Essen Associative Code) Database: BOEHME
!!!AMT: compound duple
!!!AIN: vox
!!!EED: Helmut Schaffrath
!!!EEV: 1.0
*-
